X:113
T:Cuckoo Menuet. EHo. 113
A:England; East Yorkshire
M:3/4
L:1/8
Q:3/4=40
B:Edward Holmes MS, c1846, Beverley, Yorkshire.
O:
Z:Village Music Project 2018, Jake Wade. Beverley, East Yorks
K:Bb
BB/B/ BBBB | dBfBbB | AF/F/ FFFF | AFcA ec |
BB/B/ BBBB | dBfBbf | gfedcB | A/B/c/B/ AGFE |
D/B/B/B/ F/B/B/B/ D/B/B/B/ | E/B/B/B/ G/B/B/B/ E/B/B/B/ |\
D/B/B/B/ F/B/B/B/ D/B/B/B/ | E/B/B/B/ G/B/B/B/ E/B/B/B/ |
D/B/B/B/ F/B/B/B/ D/B/B/B/ | DFBd fb | a/g/f/e/ d2c2 | B6 :|
|| AF/F/ FFFF | AFcAec | BB/B/ BBBB | dBfBbB |
gfedcB | (3Aff (3cff (3Aff | (3 Gff (3dff (3Gff | A/f/f/f/ c/f/f/f/ A/f/f/f/ |
B/f/f/f/ d/f/f/f/ B/f/f/f/ | {a}gfedcB | A/B/c/B/ AGFE | (3DBB (3FBB (3DBB|
(3EBB (3GBB (3EBB | D/B/B/B/ F/B/B/B/ D/B/B/B/ | E/B/B/B/ G/B/B/B/ E/B/B/B/ | DFBFDF |
EGBGEG | (3DFB (3dBF (3DFB | (3EGB (3eBG (3EGB | (3DFB (3dBG (3dBF |
(3EGB (3eBG (3EGB | (3DFB (3FBd (3dfb | a/g/f/e/ d2"tr"c2 | [B6D6] ||

